icons/ribbon_fill.svg

<svg width="48" height="48" viewBox="0 0 48 48" fill="none" xmlns="http://www.w3.org/2000/svg">
<path fill-rule="evenodd" clip-rule="evenodd" d="M26.9237 4C27.8914 4 28.7899 4.21665 29.5913 4.67461C30.276 5.06587 31.0533 5.60468 31.6279 6.40924L31.6156 6.41809L31.6269 6.43321L33.9584 9.45547L34.7795 10.5502C37.3104 13.8929 37.31 18.5471 34.778 21.8893L31.8508 25.6681L31.7592 25.5501L26.9658 19.4906L25.7551 17.9268L28.7743 14.027C28.1756 13.7018 27.4959 13.5093 26.8333 13.5093H21.5857C20.8665 13.5093 20.1663 13.6875 19.5739 14.0266L24.9969 21.0313L29.789 27.0891L37.2191 36.6521C37.8623 37.4799 37.7571 38.6639 36.9781 39.3654L32.9121 43.0268C32.0516 43.8018 30.7148 43.6861 30.0001 42.7749L23.424 34.3903L13.6468 21.9878L13.6409 21.98C11.109 18.6379 11.1085 13.9837 13.6394 10.641L13.6409 10.639L14.4522 9.55709L16.7886 6.52844C16.8241 6.48089 16.8604 6.43373 16.8974 6.38697C18.0073 4.84975 19.8516 4 21.6761 4H26.9237ZM18.7174 12.2146C19.6043 11.7394 20.6036 11.5093 21.5857 11.5093H26.8333C27.965 11.5093 29.0758 11.8619 30.0098 12.4317C31.0685 11.0296 31.0759 9.05028 30.032 7.64018L29.9319 7.51046L29.9466 7.49895C29.6182 7.07086 29.1501 6.726 28.599 6.4111C28.1338 6.14525 27.5847 6 26.9237 6H21.6761C20.4332 6 19.2104 6.58966 18.5089 7.57171L18.4982 7.5867L18.3831 7.73584C17.8657 8.43472 17.6094 9.25167 17.6094 10.0667C17.6094 10.8772 17.8617 11.7461 18.3445 12.4332C18.4663 12.3553 18.5907 12.2824 18.7174 12.2146Z" fill="black"/>
<path d="M16.5675 29.7279L21.4555 35.9316L21.4603 35.9377L22.6207 37.4172L18.3652 42.843C17.6916 43.7019 16.4538 43.862 15.5838 43.2029L11.2054 39.8859C10.3155 39.2118 10.1498 37.9398 10.8372 37.0602L16.5675 29.7279Z" fill="black"/>
</svg>

<svg
  xmlns="http://www.w3.org/2000/svg"
  width="24"
  height="24"
  viewBox="0 0 24 24"
  fill="none"
  stroke="currentColor"
  stroke-width="2"
  stroke-linecap="round"
  stroke-linejoin="round"
>
  <path
    fill-rule="evenodd"
    d="M26.924 4c.967 0 1.866.217 2.667.675.685.39 1.462.93 2.037 1.734l-.012.01.01.014 2.332 3.022.822 1.095a9.414 9.414 0 0 1-.002 11.34l-2.927 3.778-.092-.118-4.793-6.06-1.21-1.563 3.018-3.9c-.598-.325-1.278-.518-1.94-.518h-5.248c-.72 0-1.42.178-2.012.518l5.423 7.004 4.792 6.058 7.43 9.563a2 2 0 0 1-.24 2.713l-4.067 3.662A2 2 0 0 1 30 42.775l-6.576-8.385-9.777-12.402-.006-.008a9.414 9.414 0 0 1-.002-11.339l.002-.002.811-1.082 2.337-3.029.108-.141C18.007 4.85 19.852 4 21.677 4zm-8.207 8.215a6.1 6.1 0 0 1 2.869-.706h5.247c1.132 0 2.243.353 3.177.923a4.03 4.03 0 0 0 .022-4.792l-.1-.13.015-.011c-.329-.428-.797-.773-1.348-1.088C28.134 6.145 27.585 6 26.924 6h-5.248c-1.243 0-2.466.59-3.167 1.572l-.01.015-.116.149a3.9 3.9 0 0 0-.774 2.33c0 .811.253 1.68.735 2.367q.184-.116.373-.218"
    clip-rule="evenodd"
  />
  <path d="m16.568 29.728 4.887 6.204.005.006 1.16 1.48-4.255 5.425a2 2 0 0 1-2.781.36l-4.379-3.317a2 2 0 0 1-.368-2.826z" />
</svg>
